frontend/public/svg/hand gestures/clap.svg

<svg width="142" height="158" viewBox="0 0 142 158" fill="none" xmlns="http://www.w3.org/2000/svg">
<g clip-path="url(#clip0)">
<path d="M84.735 23.5709C84.4915 19.451 81.7415 16.869 77.5586 16.8322H77.4786C74.6366 16.8322 72.4208 18.1836 70.4498 19.6447C69.8749 20.07 69.3117 20.5104 68.6508 21.0269L68.4099 21.2146L68.3692 20.8864C68.2701 20.0877 68.192 19.457 68.0745 18.8105C67.4792 15.5511 65.5911 13.8328 62.3022 13.5565C61.1479 13.4317 59.9804 13.5731 58.8892 13.9698C57.7981 14.3666 56.8124 15.0081 56.0078 15.8451C54.7404 17.1592 53.5852 18.5771 52.5542 20.0837C45.8035 30.0448 39.6589 40.4036 34.1538 51.1036C33.8372 51.6713 33.4865 52.2192 33.1036 52.7445L32.9442 52.9735L32.7742 52.6454C32.4237 51.9739 32.1282 51.4081 31.827 50.8463C29.5441 46.3757 25.7455 42.8627 21.1104 40.9356C19.7725 40.3363 18.2979 40.1076 16.8413 40.2735C15.3847 40.4395 13.9996 40.9939 12.8307 41.8787C11.6648 42.8365 10.7778 44.0901 10.2627 45.5084C9.74763 46.9265 9.62319 48.4572 9.90266 49.9399C10.1061 51.0781 10.4078 52.1966 10.8045 53.2826C12.5314 58.3171 13.2542 63.6413 12.9318 68.9541C12.5314 76.0425 12.4 83.0588 12.2806 90.8377C12.264 92.5934 12.5598 94.3379 13.1542 95.9899C15.6725 103.273 20.4241 109.577 26.7325 114.004C28.5906 115.297 29.1892 116.487 29.1039 118.717L29.0829 119.263C28.9556 122.505 28.8204 125.857 29.7392 128.899C33.8085 142.415 42.524 151.29 55.6521 155.278C58.7611 156.244 61.9955 156.746 65.251 156.767C69.806 156.765 74.2953 155.685 78.3534 153.617C83.2484 151.19 87.7036 147.963 91.5373 144.071C97.1897 138.429 102.519 132.474 107.5 126.232C113.352 118.787 117.96 112.345 121.433 105.098C123.155 101.654 124.531 98.0489 125.543 94.334C127.086 88.2957 124.493 83.4762 118.428 81.1049C118.253 81.0235 118.086 80.925 117.929 80.8115L117.826 80.7458C117.892 80.587 117.958 80.4282 118.023 80.268C118.33 79.5618 118.6 78.8405 118.833 78.1067C118.981 77.6151 119.139 77.1222 119.298 76.6286C119.854 75.0803 120.253 73.4802 120.487 71.8525C120.647 70.7426 120.574 69.6117 120.273 68.532C119.972 67.4517 119.451 66.4462 118.741 65.5785C117.952 64.7019 116.993 63.996 115.922 63.504C114.851 63.0121 113.691 62.7447 112.512 62.7181L110.752 62.6151C110.799 62.1281 110.849 61.6497 110.899 61.1712C111.05 59.7273 111.194 58.3666 111.227 56.9817C111.315 52.8718 108.844 50.0016 104.778 49.491C104.017 49.4251 103.25 49.4493 102.494 49.5632C102.089 49.6091 101.556 49.6617 101.04 49.6722H100.897C99.7356 49.6755 99.4527 49.5731 99.393 49.5245C97.6334 47.0081 95.0061 45.996 92.6327 45.1493C92.7128 44.9013 92.7922 44.6597 92.871 44.4221C93.165 43.5947 93.4059 42.7497 93.593 41.8919L93.7623 41.0386C94.1443 39.4324 94.3576 37.7908 94.3989 36.1404C94.3536 31.8742 91.3712 28.8997 86.9777 28.7422C86.3142 28.7179 85.6519 28.7238 84.9897 28.731H84.7586C84.7619 28.2611 84.7685 27.805 84.7744 27.3527C84.7902 26.0401 84.8053 24.8022 84.735 23.5709ZM39.0342 52.8134C41.5342 48.3031 44.1202 43.639 46.7941 39.1339C49.7909 34.0841 53.0457 29.0703 56.1935 24.2206L57.7642 21.8001C58.4411 20.7208 59.31 19.7748 60.3279 19.0087C61.1811 18.3918 62.0048 18.2119 62.5843 18.5177C63.1416 18.8111 63.4475 19.5528 63.4239 20.5524C63.3968 22.2798 63.0848 23.9909 62.5004 25.6167C61.3988 28.5349 60.1332 31.3886 58.7099 34.1642C56.605 38.3194 54.4307 42.4891 52.3284 46.5217L52.2405 46.6904C50.9383 49.1884 49.64 51.6882 48.3457 54.1897L48.225 54.422C47.7285 55.1905 47.4471 56.078 47.4099 56.9922C47.4778 57.5016 47.6585 57.9894 47.9388 58.42C48.2192 58.8507 48.5921 59.2134 49.0304 59.4817C49.7701 59.8893 51.294 59.3367 51.7679 58.6567C53.0057 56.885 54.1133 55.0258 55.0818 53.0937C59.1143 45.0155 64.3926 36.6353 71.6923 26.7207C72.8809 25.2051 74.3806 23.9616 76.0897 23.0734C77.1149 22.5188 77.9695 22.3914 78.4348 22.7255C78.8746 23.0419 79.0196 23.8328 78.8339 24.8915C78.3574 28.051 77.4772 31.1363 76.2144 34.0716C71.582 44.0174 65.9716 53.4778 59.4667 62.3132L59.2121 62.6585C59.0251 62.9112 58.8374 63.1651 58.6641 63.4257L58.5439 63.6056C57.8981 64.5678 56.9228 66.0221 58.2768 67.4839C58.8475 68.1566 59.6441 68.5983 60.5173 68.7263C61.3904 68.8536 62.2801 68.6587 63.0196 68.177C64.1546 67.4845 65.1053 66.5282 65.7905 65.3888C70.4045 57.4812 75.3028 49.0506 80.0061 40.5634C81.5157 37.8449 83.0994 36.1122 85.1505 34.9459C86.5163 34.1688 87.2875 34.0998 87.8119 34.7109C88.3508 35.4338 88.5858 36.3382 88.4683 37.2319C88.0508 39.2815 87.4332 41.2852 86.6253 43.2145C86.3391 43.8509 85.8219 44.3543 85.1774 44.6223C81.4875 45.7479 79.1745 48.4074 77.3985 50.8575C71.1633 59.472 64.7653 68.406 58.3896 77.4116C57.2187 79.0669 56.1477 80.799 55.007 82.6427C54.6532 83.2143 54.2921 83.7985 53.918 84.3964L53.1868 82.5002C51.3593 77.8534 48.1063 73.9055 43.8951 71.223C40.1283 68.7145 36.8237 68.494 33.796 70.5516C30.4979 72.7917 29.1865 76.0583 29.8993 80.2595C30.1257 81.5951 30.3857 82.9452 30.6449 84.2927C31.0151 86.2151 31.3985 88.2038 31.6801 90.1689C32.2294 94.0006 31.6865 97.7168 31.1096 101.659C30.811 103.707 30.5025 105.821 30.3555 107.977L30.2898 107.958C30.0256 107.908 29.7722 107.811 29.541 107.673C24.3559 103.315 21.0894 98.8306 19.5444 93.9625C18.5855 90.9381 18.5461 87.596 18.5927 83.8549C18.6386 80.1597 18.9366 76.4022 19.224 72.768C19.3205 71.5466 19.417 70.3258 19.5049 69.1044C20.0769 62.7344 19.2416 56.3167 17.0581 50.3055L16.9184 49.9354C16.2929 48.3024 15.7022 46.7593 17.1579 45.7255C17.6154 45.3856 18.1698 45.2015 18.7397 45.2005C19.6815 45.2005 20.7829 45.6934 22.0122 46.6661C27.3942 50.9237 29.2154 55.3507 27.7393 60.5982C27.3652 61.9266 27.1605 63.5733 28.9162 64.5198C29.7977 64.995 31.5179 65.4524 33.145 63.1756C33.8111 62.2018 34.4161 61.1876 34.9565 60.1388C35.1534 59.7765 35.3502 59.4168 35.5471 59.0564C36.704 56.9999 37.8528 54.9377 38.9935 52.8698L39.0342 52.8134ZM35.7578 118.946C35.8812 117.638 36.0203 116.156 36.2172 114.692C36.7771 110.565 37.3758 106.372 37.9553 102.318L38.5663 98.0252C39.3334 92.3728 38.99 86.6253 37.5555 81.1042L37.5154 80.9421C37.1394 79.6425 36.9156 78.3036 36.8481 76.9522C36.8081 76.6037 36.8479 76.2499 36.9647 75.9191C37.0815 75.5883 37.2721 75.2877 37.522 75.0416C37.8391 74.846 38.196 74.7233 38.5665 74.6832C38.9369 74.6439 39.3115 74.6872 39.663 74.8106C40.2757 74.953 40.8703 75.165 41.4352 75.442C46.5435 77.9577 49.8218 85.7393 48.055 91.1521C47.3842 93.2064 46.9123 95.2916 49.0946 96.2518C50.767 96.9882 52.5594 96.1862 54.0106 94.0439C55.7781 91.435 57.5286 88.7932 59.2219 86.244C61.9785 82.0946 64.8231 77.8035 67.7313 73.6567C72.623 66.6825 77.7549 59.7916 83.0207 52.7583C83.9067 51.5776 85.0442 50.6086 86.3503 49.9216C86.6391 49.7301 86.9744 49.6192 87.3203 49.6003C87.6662 49.5813 88.0115 49.655 88.3193 49.8139C88.5877 50.0424 88.7918 50.3374 88.9106 50.6695C89.0301 51.0015 89.0596 51.359 88.9973 51.7061C88.9172 53.4277 88.5346 55.1217 87.8671 56.7107C86.4546 59.8618 84.8545 62.9256 83.0758 65.8857C80.2299 70.5956 77.2633 75.3415 74.3918 79.9353C72.9689 82.2108 71.5485 84.4883 70.1315 86.7677C70.0475 86.9029 69.9543 87.0414 69.8604 87.1812C69.3898 87.7424 69.0984 88.4322 69.0243 89.1607C69.0085 90.2627 69.399 91.3319 70.121 92.1648C70.3218 92.3729 70.5667 92.5343 70.8377 92.6367C71.1088 92.7384 71.3995 92.7791 71.6877 92.7555C72.0762 92.6978 72.4471 92.5573 72.7772 92.3446C73.1067 92.132 73.3876 91.8517 73.6009 91.5222C73.8595 91.1619 74.1201 90.8029 74.382 90.4445C75.371 89.0892 76.3923 87.6879 77.2646 86.2144C82.1871 77.898 88.2753 69.6747 97.0092 59.5547C98.5293 57.8936 100.402 56.5942 102.491 55.7524C103.546 55.3074 104.384 55.2556 104.793 55.6094C105.203 55.9632 105.276 56.8046 104.99 57.9138C104.243 61.1365 103.113 64.258 101.623 67.2115C96.6023 76.435 90.268 85.5233 81.6942 95.8108C81.515 96.026 81.3293 96.2347 81.1179 96.4723C80.8626 96.7592 80.6067 97.0466 80.3671 97.3459L80.2831 97.4503C79.4541 98.4814 78.3187 99.8932 79.672 101.651C80.2857 102.36 81.1212 102.841 82.0434 103.015C82.9649 103.189 83.9185 103.046 84.7482 102.608C85.9703 101.88 87.0342 100.914 87.8782 99.7698C92.338 93.5536 96.765 87.2515 101.038 81.0379C102.224 79.313 103.291 77.4766 104.333 75.6822C104.64 75.1538 104.948 74.6268 105.257 74.0998C106.573 71.8662 108.573 70.1151 110.961 69.1057C112.064 68.6134 112.977 68.4277 113.849 69.1234C114.657 69.7686 114.807 70.671 114.295 71.8039C113.831 72.8304 113.387 73.8733 112.941 74.9215C111.779 77.9026 110.347 80.7721 108.663 83.4939C105.79 87.8159 102.6 92.0296 99.5144 96.1048L99.4573 96.1803C97.9668 98.1493 96.4264 100.184 94.9404 102.207C93.4794 104.196 92.1418 106.182 90.9637 108.114C90.415 109.013 89.9575 110.273 90.3185 111.117C90.8383 112.331 91.744 113.339 92.8959 113.985C93.8305 114.458 95.4786 113.02 95.9459 112.392C97.829 109.862 99.6785 107.265 101.467 104.754C102.64 103.106 103.818 101.462 105.001 99.8216L106.052 98.3665C107.637 96.1612 109.277 93.8805 111.07 91.8123C112.28 90.4741 113.731 89.3747 115.347 88.572C115.643 88.3718 115.983 88.2425 116.337 88.1953C116.691 88.1474 117.052 88.1821 117.39 88.297C117.891 88.5536 118.233 89.2021 118.382 90.1722C118.605 91.6187 118.484 93.0975 118.029 94.4889C116.949 97.6518 115.672 100.745 114.207 103.749C110.818 110.674 106.601 117.163 101.649 123.072L101.44 123.319C100.735 124.1 100.105 124.946 99.5597 125.846C96.1618 131.867 91.1428 136.697 86.2879 141.368L86.1343 141.516C82.6597 144.787 78.5602 147.323 74.0813 148.971C69.2573 150.813 63.9823 150.754 57.9572 148.795C47.4689 145.382 40.4041 138.285 36.3584 127.094L36.3033 126.942C36.0857 126.416 35.9336 125.864 35.8505 125.301C35.7586 124.308 35.7192 123.303 35.6785 122.14L35.6726 121.987C35.6549 121.516 35.6365 121.017 35.6109 120.531C35.6601 120.051 35.7093 119.529 35.7612 118.978L35.4251 118.947L35.7578 118.946Z" fill="black"/>
<path d="M37.8727 0.695801C37.7966 0.695801 37.723 0.695801 37.5668 0.695801L36.9105 0.727288C36.5928 0.75551 36.1734 0.79289 35.7579 0.858523C28.9008 1.91116 22.336 4.37273 16.4774 8.08806C8.85119 12.8226 3.23283 20.1968 0.69239 28.8061C0.338504 30.029 0.125534 31.2884 0.0576864 32.5597C-0.00269664 33.4516 -0.142401 35.5401 1.96116 35.8237C2.06995 35.8382 2.17957 35.8456 2.28933 35.8459C3.67617 35.8459 4.09624 34.5569 4.34696 33.7864C4.38437 33.6709 4.42168 33.5567 4.46041 33.4471C4.67962 32.8288 4.87985 32.2 5.08069 31.5758C5.41608 30.5257 5.76326 29.4348 6.203 28.4142C11.054 17.1705 20.1175 10.214 33.9078 7.14891C34.5825 6.99864 35.2814 6.88635 35.9581 6.78199C36.8113 6.65072 37.689 6.50897 38.6046 6.27531C39.914 5.94189 41.7069 5.4877 41.8165 3.34936C41.8312 3.07847 41.7905 2.80749 41.6968 2.55289C41.6032 2.29829 41.4586 2.06546 41.2719 1.86867C40.6175 1.15982 39.4119 0.74437 37.8727 0.695801Z" fill="black"/>
<path d="M125.471 135.456C121.296 139.136 116.668 142.268 111.701 144.776C110.977 145.185 110.289 145.656 109.647 146.184C109.343 146.419 109.031 146.66 108.699 146.898L108.129 147.308L108.63 147.799C109.079 148.296 109.625 148.698 110.233 148.981C110.841 149.262 111.5 149.418 112.171 149.439C113.335 149.375 114.47 149.049 115.491 148.486C120.326 146.197 125.024 142.964 130.276 138.313C135.622 133.578 139.126 127.361 140.69 119.833C141.227 117.253 140.918 114.451 140.646 111.974C140.384 109.599 139.197 108.295 137.115 108.097L136.811 108.069L136.614 108.302C135.286 109.856 135.334 111.551 135.376 113.052C135.385 113.359 135.394 113.664 135.39 113.964C135.278 122.488 132.037 129.519 125.471 135.456Z" fill="black"/>
<path d="M126.953 111.315C126.724 111.118 126.455 110.974 126.164 110.893C125.874 110.811 125.57 110.795 125.272 110.844C122.834 111.189 122.806 113.2 122.787 114.53C122.787 114.717 122.782 114.904 122.775 115.085C122.73 117.875 122.032 120.616 120.736 123.087C119.441 125.559 117.584 127.692 115.315 129.316C113.832 130.366 112.285 131.322 110.683 132.179C110.036 132.543 109.389 132.907 108.752 133.282C108.49 133.428 108.221 133.559 107.946 133.676C107.329 133.902 106.766 134.256 106.296 134.715C105.754 135.322 105.102 136.659 105.427 137.603C105.743 138.522 107.095 139.144 107.949 139.236C108.054 139.248 108.16 139.253 108.265 139.253C109.111 139.194 109.937 138.979 110.704 138.62L110.809 138.578C114.669 137.089 118.187 134.835 121.153 131.953C123.341 129.889 125.096 127.409 126.316 124.66C127.535 121.91 128.194 118.945 128.254 115.938V115.724C128.254 115.563 128.254 115.402 128.254 115.242C128.206 113.355 127.757 111.997 126.953 111.315Z" fill="black"/>
<path d="M17.9829 35.8011L18.2652 35.5385C18.386 35.4276 18.4916 35.3416 18.5901 35.2635C18.8094 35.1187 18.9845 34.9161 19.0961 34.6781C22.1507 26.871 27.8254 21.6964 35.9726 19.2988C37.1929 18.86 38.3314 18.2206 39.3414 17.4072C39.6538 17.1504 39.8857 16.8092 40.0093 16.4241C40.1329 16.0391 40.1429 15.6266 40.0385 15.236C39.8515 14.8795 39.5947 14.5642 39.2833 14.309C38.9718 14.0538 38.6121 13.864 38.2257 13.7507C37.4549 13.6062 36.659 13.6809 35.9285 13.966C29.7491 15.9501 25.1752 18.5912 21.5331 22.2779C19.1789 24.6611 17.4578 27.6828 16.1169 31.7869C15.7231 32.9887 15.4534 34.6965 17.6265 35.6456L17.9829 35.8011Z" fill="black"/>
</g>
<defs>
<clipPath id="clip0">
<rect width="141.113" height="156.865" fill="white" transform="translate(0.00646973 0.44751)"/>
</clipPath>
</defs>
</svg>

<svg xmlns="http://www.w3.org/2000/svg" width="142" height="158" fill="none" viewBox="0 0 142 158"><g fill="#000" clip-path="url(#a)"><path d="M84.735 23.57c-.243-4.119-2.993-6.701-7.176-6.738h-.08c-2.842 0-5.058 1.352-7.03 2.813-.574.425-1.137.865-1.798 1.382l-.241.188-.04-.329c-.1-.798-.178-1.429-.296-2.075-.595-3.26-2.483-4.978-5.772-5.254a7.6 7.6 0 0 0-6.294 2.288 33 33 0 0 0-3.454 4.239 300 300 0 0 0-18.4 31.02 16 16 0 0 1-1.05 1.64l-.16.23-.17-.329c-.35-.671-.646-1.237-.947-1.799a21.15 21.15 0 0 0-10.717-9.91 8.18 8.18 0 0 0-8.28.943 8.41 8.41 0 0 0-2.927 8.06c.203 1.14.505 2.258.902 3.344a40.7 40.7 0 0 1 2.127 15.671c-.4 7.089-.532 14.105-.651 21.884-.017 1.755.279 3.5.873 5.152a36.63 36.63 0 0 0 13.579 18.014c1.858 1.293 2.456 2.483 2.37 4.713l-.02.546c-.127 3.242-.263 6.594.656 9.636 4.07 13.516 12.785 22.391 25.913 26.379a33 33 0 0 0 9.599 1.489 28.9 28.9 0 0 0 13.102-3.15 49.2 49.2 0 0 0 13.184-9.546 212 212 0 0 0 15.963-17.839c5.852-7.445 10.46-13.887 13.933-21.134a58.4 58.4 0 0 0 4.11-10.764c1.543-6.038-1.05-10.858-7.115-13.23a3 3 0 0 1-.499-.293l-.103-.065.197-.478q.46-1.06.81-2.161c.148-.492.306-.985.465-1.478a24.4 24.4 0 0 0 1.189-4.776 8.1 8.1 0 0 0-1.746-6.274 8.65 8.65 0 0 0-6.229-2.86l-1.76-.104c.047-.487.097-.965.147-1.444.151-1.444.295-2.804.328-4.19.088-4.11-2.383-6.98-6.449-7.49a9.7 9.7 0 0 0-2.284.072c-.405.046-.938.099-1.454.11h-.143c-1.161.002-1.444-.1-1.504-.148-1.76-2.517-4.387-3.529-6.76-4.376q.12-.372.238-.727.441-1.242.722-2.53l.17-.853c.381-1.607.595-3.248.636-4.899-.045-4.266-3.028-7.24-7.421-7.398a42 42 0 0 0-1.988-.011h-.231c.003-.47.01-.926.015-1.378.016-1.313.031-2.55-.039-3.782m-45.7 29.243c2.5-4.51 5.085-9.174 7.76-13.68 2.996-5.049 6.25-10.063 9.398-14.912l1.571-2.42a10.4 10.4 0 0 1 2.564-2.792c.853-.617 1.677-.797 2.256-.491.558.293.863 1.035.84 2.034a15.7 15.7 0 0 1-.924 5.065 83 83 0 0 1-3.79 8.547c-2.105 4.155-4.28 8.325-6.382 12.358l-.088.168q-1.953 3.747-3.894 7.5l-.121.232a5.1 5.1 0 0 0-.815 2.57 3.45 3.45 0 0 0 1.62 2.49c.74.407 2.264-.145 2.738-.825a45 45 0 0 0 3.314-5.563c4.032-8.078 9.31-16.459 16.61-26.373a13.5 13.5 0 0 1 4.398-3.648c1.025-.554 1.88-.682 2.345-.348.44.317.585 1.108.399 2.166a37.3 37.3 0 0 1-2.62 9.18 165.5 165.5 0 0 1-16.747 28.242l-.255.345c-.187.253-.375.507-.548.768l-.12.18c-.646.962-1.621 2.416-.267 3.878a3.63 3.63 0 0 0 4.743.693 8.24 8.24 0 0 0 2.77-2.788c4.614-7.908 9.513-16.338 14.216-24.826 1.51-2.718 3.093-4.45 5.144-5.617 1.366-.777 2.137-.846 2.662-.235.539.723.774 1.627.656 2.52a32 32 0 0 1-1.843 5.983 2.74 2.74 0 0 1-1.448 1.408c-3.69 1.126-6.003 3.785-7.779 6.236A3134 3134 0 0 0 58.39 77.412c-1.171 1.655-2.242 3.387-3.383 5.23q-.53.858-1.089 1.754l-.731-1.896a23.62 23.62 0 0 0-9.292-11.277c-3.767-2.508-7.071-2.729-10.099-.671-3.298 2.24-4.61 5.506-3.897 9.707.227 1.336.487 2.686.746 4.034.37 1.922.753 3.91 1.035 5.876.55 3.832.006 7.548-.57 11.49-.299 2.048-.607 4.162-.755 6.318l-.065-.019a2.3 2.3 0 0 1-.749-.285c-5.185-4.358-8.452-8.842-9.997-13.71-.959-3.025-.998-6.367-.951-10.108.046-3.695.344-7.453.631-11.087.096-1.221.193-2.442.28-3.664a43.6 43.6 0 0 0-2.446-18.798l-.14-.37c-.625-1.634-1.216-3.177.24-4.21a2.66 2.66 0 0 1 1.582-.526c.942 0 2.043.493 3.272 1.466 5.382 4.258 7.203 8.685 5.727 13.932-.374 1.329-.579 2.975 1.177 3.922.882.475 2.602.932 4.229-1.344a29 29 0 0 0 1.811-3.037l.591-1.083a849 849 0 0 0 3.447-6.186zm-3.277 66.133c.123-1.308.262-2.79.46-4.254.56-4.127 1.158-8.32 1.737-12.374l.611-4.293c.767-5.652.424-11.4-1.01-16.92l-.04-.163a17.5 17.5 0 0 1-.668-3.99 2.31 2.31 0 0 1 .674-1.91 2.5 2.5 0 0 1 2.141-.231 8.3 8.3 0 0 1 1.772.631c5.108 2.516 8.387 10.297 6.62 15.71-.67 2.054-1.143 4.14 1.04 5.1 1.672.736 3.464-.066 4.916-2.208 1.767-2.609 3.518-5.25 5.21-7.8 2.758-4.15 5.602-8.44 8.51-12.587 4.892-6.974 10.024-13.865 15.29-20.899a10 10 0 0 1 3.33-2.836 1.95 1.95 0 0 1 1.968-.108 2.02 2.02 0 0 1 .678 1.892 14.7 14.7 0 0 1-1.13 5.005 87 87 0 0 1-4.791 9.175c-2.846 4.71-5.813 9.456-8.684 14.05a3057 3057 0 0 0-4.26 6.832q-.13.203-.272.413a3.66 3.66 0 0 0-.836 1.98 4.5 4.5 0 0 0 1.097 3.004 1.96 1.96 0 0 0 1.567.59 2.76 2.76 0 0 0 1.913-1.233q.388-.54.781-1.078c.989-1.355 2.01-2.756 2.883-4.23 4.922-8.316 11.01-16.54 19.744-26.66a15.06 15.06 0 0 1 5.482-3.802c1.055-.445 1.893-.496 2.302-.143.41.354.483 1.196.197 2.305a41.4 41.4 0 0 1-3.367 9.298c-5.02 9.223-11.355 18.311-19.929 28.599-.179.215-.365.424-.576.661-.255.287-.511.575-.75.874l-.085.104c-.829 1.031-1.964 2.443-.611 4.201a4.155 4.155 0 0 0 5.076.957 10.7 10.7 0 0 0 3.13-2.838 1154 1154 0 0 0 13.16-18.732c1.186-1.725 2.253-3.561 3.295-5.356q.46-.792.924-1.582a12.08 12.08 0 0 1 5.704-4.994c1.103-.493 2.016-.678 2.888.017.808.646.958 1.548.446 2.68-.464 1.027-.908 2.07-1.354 3.118a52.6 52.6 0 0 1-4.278 8.573c-2.873 4.322-6.063 8.536-9.149 12.61l-.057.076c-1.49 1.97-3.03 4.004-4.517 6.027a83 83 0 0 0-3.976 5.907c-.549.899-1.007 2.159-.645 3.003a6 6 0 0 0 2.577 2.868c.934.473 2.583-.965 3.05-1.593 1.883-2.53 3.733-5.127 5.521-7.638a978 978 0 0 1 3.534-4.932l1.051-1.456c1.585-2.205 3.225-4.486 5.018-6.554a14.4 14.4 0 0 1 4.277-3.24 2.32 2.32 0 0 1 2.043-.275c.501.257.843.905.992 1.875a9.3 9.3 0 0 1-.353 4.317 80 80 0 0 1-3.822 9.26 95.3 95.3 0 0 1-12.558 19.323l-.209.247a16.6 16.6 0 0 0-1.88 2.527c-3.398 6.021-8.417 10.851-13.272 15.522l-.154.148a35.4 35.4 0 0 1-12.053 7.455c-4.824 1.842-10.099 1.783-16.124-.176-10.488-3.413-17.553-10.51-21.599-21.701l-.055-.152a7 7 0 0 1-.453-1.641c-.091-.993-.13-1.998-.172-3.161l-.005-.153c-.018-.471-.037-.97-.062-1.456.05-.48.098-1.002.15-1.553l-.336-.031zM37.873.696h-.306l-.657.031c-.317.029-.737.066-1.152.132a50.2 50.2 0 0 0-19.28 7.23A36.57 36.57 0 0 0 .691 28.805a16.7 16.7 0 0 0-.634 3.754c-.06.892-.2 2.98 1.903 3.264q.164.022.328.022c1.387 0 1.807-1.29 2.058-2.06q.056-.174.113-.339c.22-.618.42-1.247.62-1.871.336-1.05.683-2.141 1.123-3.162 4.851-11.244 13.915-18.2 27.705-21.265a32 32 0 0 1 2.05-.367c.853-.131 1.731-.273 2.647-.507 1.309-.333 3.102-.787 3.212-2.926a2 2 0 0 0-.545-1.48c-.654-.71-1.86-1.125-3.4-1.173m87.6 134.761a65.4 65.4 0 0 1-13.77 9.32 14.3 14.3 0 0 0-2.054 1.408c-.304.235-.616.476-.948.714l-.57.41.501.491a5 5 0 0 0 1.603 1.182 5 5 0 0 0 1.938.458 7.76 7.76 0 0 0 3.32-.953c4.835-2.289 9.533-5.522 14.785-10.173 5.346-4.735 8.85-10.952 10.414-18.48.537-2.58.228-5.382-.044-7.859-.262-2.375-1.449-3.679-3.531-3.877l-.304-.028-.197.233c-1.328 1.554-1.28 3.249-1.238 4.75.009.307.018.612.014.912-.112 8.524-3.353 15.555-9.919 21.492"/><path d="M126.953 111.315a2.05 2.05 0 0 0-1.681-.471c-2.438.345-2.466 2.356-2.485 3.686q0 .282-.012.555a17.85 17.85 0 0 1-7.46 14.231 44 44 0 0 1-4.632 2.863c-.647.364-1.294.728-1.931 1.103a9 9 0 0 1-.806.394c-.617.226-1.18.58-1.65 1.039-.542.607-1.194 1.944-.869 2.888.316.919 1.668 1.541 2.522 1.633q.158.017.316.017a6.9 6.9 0 0 0 2.439-.633l.105-.042a30.7 30.7 0 0 0 10.344-6.625 22.64 22.64 0 0 0 7.101-16.015v-.696c-.048-1.887-.497-3.245-1.301-3.927M17.983 35.801l.282-.263c.121-.11.227-.196.325-.274.22-.145.395-.348.506-.586 3.055-7.807 8.73-12.982 16.877-15.38a11.7 11.7 0 0 0 3.368-1.89 2.11 2.11 0 0 0 .697-2.172 3 3 0 0 0-1.812-1.485 4.2 4.2 0 0 0-2.297.215c-6.18 1.984-10.754 4.625-14.396 8.312-2.354 2.383-4.075 5.405-5.416 9.509-.394 1.202-.664 2.91 1.51 3.859z"/></g><defs><clipPath id="a"><path fill="#fff" d="M.006.448H141.12v156.865H.006z"/></clipPath></defs></svg>
